assets/ic-services.svg

<svg width="207" height="198" viewBox="0 0 207 198" fill="none" xmlns="http://www.w3.org/2000/svg">
<path fill-rule="evenodd" clip-rule="evenodd" d="M86.3656 22.3154L145.654 22.357C152.888 21.9341 161.179 22.3547 168.55 22.3634C176.731 22.3729 182.976 21.8985 185.678 28.0667C190.252 31.4142 188.117 41.865 188.202 47.7959C192.183 47.6046 195.494 47.0736 198.527 48.6999C201.249 48.4561 202.256 49.949 203.626 51.6381C204.861 53.1605 204.479 52.4983 205.375 54.5219C205.739 55.3466 206.07 56.5413 206.417 57.4261L205.841 86.2102C205.801 112.872 206.258 149.24 206.325 160.876C206.414 176.542 209.559 194.549 190.027 196.624C176.868 198.023 152.217 197.142 138.268 196.778L87.6382 196.845C69.7157 196.854 35.4471 197.831 19.2386 197.185C13.9506 196.974 5.29627 194.51 4.52563 188.593C-0.977742 182.457 1.04695 143.918 1.09079 132.833C1.16865 113.461 0.301251 93.168 0.884432 74.0277C1.01596 62.4404 -0.822023 21.6551 1.50957 13.7922C6.65313 -3.56263 30.1421 0.795541 48.2332 0.834848C60.8292 0.862816 64.9644 -1.01674 71.9498 6.94332C77.4868 13.2517 80.5554 21.4522 86.3656 22.3154ZM113.524 54.5518C140.637 58.3226 164.961 96.1855 150.246 129.812C131.282 173.148 81.1794 165.832 73.2556 154.574C57.7425 149.481 39.6771 114.736 52.6526 85.7967C64.0381 60.4017 91.663 47.0982 113.524 54.5518ZM84.9967 31.3266C74.3785 29.7497 71.0536 20.0447 64.9482 13.0881C63.7901 11.7698 62.5988 10.3989 60.7975 10.1253C57.3642 9.60373 51.8374 10.1586 48.2128 10.151C39.4292 10.1317 29.8076 8.97671 21.1487 10.0376C16.622 10.5921 11.8832 11.574 10.4451 16.428C9.85325 18.6429 9.8147 23.2225 9.74629 25.5764C9.58264 31.2873 9.62119 37.0268 9.69187 42.74C9.82113 53.1586 10.3178 63.7375 10.1995 74.1335C10.1995 74.1955 10.1983 74.2488 10.196 74.3119C9.60191 93.8146 10.4844 113.359 10.4066 132.87C10.3703 142.055 9.94169 151.201 10.0188 160.41C10.0551 164.728 10.2558 178.884 11.9335 182.939C12.7295 183.963 13.2635 185.065 13.5651 186.31C14.9987 187.241 18.2597 187.823 19.6093 187.876C30.545 188.312 41.7294 188.09 52.6772 187.951C64.3223 187.804 75.9814 187.544 87.6253 187.529L138.256 187.462C138.345 187.462 138.422 187.463 138.512 187.465C147.185 187.692 155.854 187.964 164.532 188.046C172.518 188.122 181.108 188.203 189.044 187.36C193.373 186.9 195.454 185.844 196.485 181.632C197.918 175.777 197.044 167.067 197.009 160.93C196.867 136.016 196.487 111.114 196.525 86.1966C196.525 86.1354 196.526 86.0844 196.527 86.0243L197.07 58.8665C196.999 58.6643 196.927 58.4655 196.848 58.2735C196.787 58.1344 196.725 57.9911 196.662 57.846C195.807 57.6729 194.984 57.3683 194.172 56.9302C193.342 56.6929 189.657 57.053 188.648 57.101C186.031 57.2273 183.732 56.3799 181.823 54.585C179.912 52.7909 178.924 50.5492 178.887 47.9285C178.853 45.5278 179.667 37.4403 179.144 34.7202C178.344 33.9488 177.726 33.0674 177.237 32.0084C175.415 31.5299 170.033 31.6815 168.54 31.6792C161.127 31.6709 153.593 31.2241 146.198 31.6569C145.994 31.6686 145.82 31.6739 145.616 31.6728L86.3271 31.4282C85.8592 31.426 85.4597 31.3961 84.9967 31.3266ZM105.505 61.3485C127.005 62.5152 143.875 82.2141 146.464 105.279L105.371 105.31L105.505 61.3485ZM101.336 114.35C104.205 111.386 105.152 112.368 110.875 112.392L146.715 112.247C147.067 135.236 122.273 158.034 95.6013 155.063C84.1387 153.786 78.9419 148.229 74.3123 146.236C73.4094 144.575 75.0505 145.42 72.3345 144.044C82.2093 134.309 91.1021 124.053 101.336 114.35ZM98.2352 60.3813C96.8587 65.9735 98.6978 94.337 97.954 103.616C97.8558 104.855 97.8044 104.875 97.6675 105.798C97.4453 107.297 97.4763 107.145 97.4551 106.97C97.4423 106.865 97.3633 107.322 97.3463 107.503C94.2081 109.151 84.1625 120.32 81.4753 123.036C77.7475 126.804 70.2531 135.803 66.5775 137.816C62.1298 133.497 57.8196 123.365 56.705 115.455C52.6715 86.8354 72.1807 62.2609 98.2352 60.3813Z" fill="black"/>
<path fill-rule="evenodd" clip-rule="evenodd" d="M86.3656 22.3154L145.654 22.357C152.888 21.9341 161.179 22.3547 168.55 22.3634C176.731 22.3729 182.976 21.8985 185.678 28.0667C190.252 31.4142 188.117 41.865 188.202 47.7959C192.183 47.6046 195.494 47.0736 198.527 48.6999C201.249 48.4561 202.256 49.949 203.626 51.6381C204.861 53.1605 204.479 52.4983 205.375 54.5219C205.739 55.3466 206.07 56.5413 206.417 57.4261L205.841 86.2102C205.801 112.872 206.258 149.24 206.325 160.876C206.414 176.542 209.559 194.549 190.027 196.624C176.868 198.023 152.217 197.142 138.268 196.778L87.6382 196.845C69.7157 196.854 35.4471 197.831 19.2386 197.185C13.9506 196.974 5.29627 194.51 4.52563 188.593C-0.977742 182.457 1.04695 143.918 1.09079 132.833C1.16865 113.461 0.301251 93.168 0.884432 74.0277C1.01596 62.4404 -0.822023 21.6551 1.50957 13.7922C6.65313 -3.56263 30.1421 0.795541 48.2332 0.834848C60.8292 0.862816 64.9644 -1.01674 71.9498 6.94332C77.4868 13.2517 80.5554 21.4522 86.3656 22.3154ZM113.524 54.5518C140.637 58.3226 164.961 96.1855 150.246 129.812C131.282 173.148 81.1794 165.832 73.2556 154.574C57.7425 149.481 39.6771 114.736 52.6526 85.7967C64.0381 60.4017 91.663 47.0982 113.524 54.5518ZM84.9967 31.3266C74.3785 29.7497 71.0536 20.0447 64.9482 13.0881C63.7901 11.7698 62.5988 10.3989 60.7975 10.1253C57.3642 9.60373 51.8374 10.1586 48.2128 10.151C39.4292 10.1317 29.8076 8.97671 21.1487 10.0376C16.622 10.5921 11.8832 11.574 10.4451 16.428C9.85325 18.6429 9.8147 23.2225 9.74629 25.5764C9.58264 31.2873 9.62119 37.0268 9.69187 42.74C9.82113 53.1586 10.3178 63.7375 10.1995 74.1335C10.1995 74.1955 10.1983 74.2488 10.196 74.3119C9.60191 93.8146 10.4844 113.359 10.4066 132.87C10.3703 142.055 9.94169 151.201 10.0188 160.41C10.0551 164.728 10.2558 178.884 11.9335 182.939C12.7295 183.963 13.2635 185.065 13.5651 186.31C14.9987 187.241 18.2597 187.823 19.6093 187.876C30.545 188.312 41.7294 188.09 52.6772 187.951C64.3223 187.804 75.9814 187.544 87.6253 187.529L138.256 187.462C138.345 187.462 138.422 187.463 138.512 187.465C147.185 187.692 155.854 187.964 164.532 188.046C172.518 188.122 181.108 188.203 189.044 187.36C193.373 186.9 195.454 185.844 196.485 181.632C197.918 175.777 197.044 167.067 197.009 160.93C196.867 136.016 196.487 111.114 196.525 86.1966C196.525 86.1354 196.526 86.0844 196.527 86.0243L197.07 58.8665C196.999 58.6643 196.927 58.4655 196.848 58.2735C196.787 58.1344 196.725 57.9911 196.662 57.846C195.807 57.6729 194.984 57.3683 194.172 56.9302C193.342 56.6929 189.657 57.053 188.648 57.101C186.031 57.2273 183.732 56.3799 181.823 54.585C179.912 52.7909 178.924 50.5492 178.887 47.9285C178.853 45.5278 179.667 37.4403 179.144 34.7202C178.344 33.9488 177.726 33.0674 177.237 32.0084C175.415 31.5299 170.033 31.6815 168.54 31.6792C161.127 31.6709 153.593 31.2241 146.198 31.6569C145.994 31.6686 145.82 31.6739 145.616 31.6728L86.3271 31.4282C85.8592 31.426 85.4597 31.3961 84.9967 31.3266ZM105.505 61.3485C127.005 62.5152 143.875 82.2141 146.464 105.279L105.371 105.31L105.505 61.3485ZM101.336 114.35C104.205 111.386 105.152 112.368 110.875 112.392L146.715 112.247C147.067 135.236 122.273 158.034 95.6013 155.063C84.1387 153.786 78.9419 148.229 74.3123 146.236C73.4094 144.575 75.0505 145.42 72.3345 144.044C82.2093 134.309 91.1021 124.053 101.336 114.35ZM98.2352 60.3813C96.8587 65.9735 98.6978 94.337 97.954 103.616C97.8558 104.855 97.8044 104.875 97.6675 105.798C97.4453 107.297 97.4763 107.145 97.4551 106.97C97.4423 106.865 97.3633 107.322 97.3463 107.503C94.2081 109.151 84.1625 120.32 81.4753 123.036C77.7475 126.804 70.2531 135.803 66.5775 137.816C62.1298 133.497 57.8196 123.365 56.705 115.455C52.6715 86.8354 72.1807 62.2609 98.2352 60.3813Z" stroke="black" stroke-width="0.639874" stroke-miterlimit="22.9256"/>
</svg>

<svg xmlns="http://www.w3.org/2000/svg" width="207" height="198" fill="none" viewBox="0 0 207 198"><path fill="#000" fill-rule="evenodd" d="m86.366 22.315 59.288.042c7.234-.423 15.525-.002 22.896.006 8.181.01 14.426-.465 17.128 5.704 4.574 3.347 2.439 13.798 2.524 19.729 3.981-.191 7.292-.722 10.325.904 2.722-.244 3.729 1.249 5.099 2.938 1.235 1.523.853.86 1.749 2.884.364.825.695 2.02 1.042 2.904l-.576 28.784c-.04 26.662.417 63.03.484 74.666.089 15.666 3.234 33.673-16.298 35.748-13.159 1.399-37.81.518-51.759.154l-50.63.067c-17.922.009-52.19.986-68.4.34-5.287-.211-13.942-2.675-14.712-8.592-5.504-6.136-3.479-44.675-3.435-55.76.078-19.372-.79-39.665-.207-58.805.132-11.588-1.706-52.373.626-60.236C6.653-3.563 30.142.796 48.233.835 60.83.863 64.964-1.017 71.95 6.943c5.537 6.309 8.605 14.51 14.416 15.372m27.158 32.237c27.113 3.77 51.437 41.634 36.722 75.26-18.964 43.336-69.067 36.02-76.99 24.762-15.513-5.093-33.579-39.838-20.603-68.777 11.385-25.395 39.01-38.699 60.871-31.245M84.997 31.327C74.379 29.75 71.054 20.045 64.948 13.088c-1.158-1.318-2.35-2.69-4.15-2.963-3.434-.521-8.96.034-12.585.026-8.784-.02-18.405-1.174-27.064-.113-4.527.554-9.266 1.536-10.704 6.39-.592 2.215-.63 6.794-.699 9.148-.163 5.711-.125 11.45-.054 17.164.13 10.419.626 20.997.508 31.393 0 .063-.002.116-.004.179-.594 19.503.288 39.047.21 58.558-.036 9.185-.464 18.331-.387 27.54.036 4.318.237 18.474 1.915 22.529a8.7 8.7 0 0 1 1.631 3.371c1.434.931 4.695 1.513 6.044 1.566 10.936.436 22.12.214 33.068.075 11.645-.147 23.304-.407 34.948-.422l50.631-.067c.089 0 .166.001.256.003 8.673.227 17.342.499 26.02.581 7.986.076 16.576.157 24.512-.686 4.329-.46 6.41-1.516 7.441-5.728 1.433-5.855.559-14.565.524-20.702-.142-24.914-.522-49.816-.484-74.733l.002-.173.543-27.157a12 12 0 0 0-.222-.593l-.186-.428a9 9 0 0 1-2.49-.916c-.83-.237-4.515.123-5.524.171-2.617.126-4.916-.721-6.825-2.516-1.911-1.794-2.899-4.036-2.936-6.657-.034-2.4.78-10.488.257-13.208a8.8 8.8 0 0 1-1.907-2.712c-1.822-.478-7.204-.327-8.697-.329-7.413-.008-14.947-.455-22.342-.022a9 9 0 0 1-.582.016l-59.289-.245a9 9 0 0 1-1.33-.101m20.508 30.022c21.5 1.166 38.37 20.865 40.959 43.93l-41.093.031zm-4.169 53.001c2.869-2.964 3.816-1.982 9.539-1.958l35.84-.145c.352 22.989-24.442 45.787-51.114 42.816-11.462-1.277-16.66-6.834-21.289-8.827-.903-1.661.739-.816-1.977-2.192 9.874-9.735 18.767-19.991 29.001-29.694m-3.1-53.969c-1.377 5.593.462 33.956-.282 43.235-.098 1.239-.15 1.259-.286 2.182-.223 1.499-.192 1.347-.213 1.172-.013-.105-.092.352-.109.533-3.138 1.648-13.184 12.817-15.87 15.533-3.728 3.768-11.223 12.767-14.898 14.78-4.448-4.319-8.758-14.451-9.873-22.361-4.033-28.62 15.476-53.194 41.53-55.074" clip-rule="evenodd"/><path stroke="#000" stroke-miterlimit="22.926" stroke-width=".64" d="m86.366 22.315 59.288.042c7.234-.423 15.525-.002 22.896.006 8.181.01 14.426-.465 17.128 5.704 4.574 3.347 2.439 13.798 2.524 19.729 3.981-.191 7.292-.722 10.325.904 2.722-.244 3.729 1.249 5.099 2.938 1.235 1.523.853.86 1.749 2.884.364.825.695 2.02 1.042 2.904l-.576 28.784c-.04 26.662.417 63.03.484 74.666.089 15.666 3.234 33.673-16.298 35.748-13.159 1.399-37.81.518-51.759.154l-50.63.067c-17.922.009-52.19.986-68.4.34-5.287-.211-13.942-2.675-14.712-8.592-5.504-6.136-3.479-44.675-3.435-55.76.078-19.372-.79-39.665-.207-58.805.132-11.588-1.706-52.373.626-60.236C6.653-3.563 30.142.796 48.233.835 60.83.863 64.964-1.017 71.95 6.943c5.537 6.309 8.605 14.51 14.416 15.372Zm27.158 32.237c27.113 3.77 51.437 41.634 36.722 75.26-18.964 43.336-69.067 36.02-76.99 24.762-15.513-5.093-33.579-39.838-20.603-68.777 11.385-25.395 39.01-38.699 60.871-31.245ZM84.997 31.327C74.379 29.75 71.054 20.045 64.948 13.088c-1.158-1.318-2.35-2.69-4.15-2.963-3.434-.521-8.96.034-12.585.026-8.784-.02-18.405-1.174-27.064-.113-4.527.554-9.266 1.536-10.704 6.39-.592 2.215-.63 6.794-.699 9.148-.163 5.711-.125 11.45-.054 17.164.13 10.419.626 20.997.508 31.393 0 .063-.002.116-.004.179-.594 19.503.288 39.047.21 58.558-.036 9.185-.464 18.331-.387 27.54.036 4.318.237 18.474 1.915 22.529a8.7 8.7 0 0 1 1.631 3.371c1.434.931 4.695 1.513 6.044 1.566 10.936.436 22.12.214 33.068.075 11.645-.147 23.304-.407 34.948-.422l50.631-.067c.089 0 .166.001.256.003 8.673.227 17.342.499 26.02.581 7.986.076 16.576.157 24.512-.686 4.329-.46 6.41-1.516 7.441-5.728 1.433-5.855.559-14.565.524-20.702-.142-24.914-.522-49.816-.484-74.733l.002-.173.543-27.157a12 12 0 0 0-.222-.593l-.186-.428a9 9 0 0 1-2.49-.916c-.83-.237-4.515.123-5.524.171-2.617.126-4.916-.721-6.825-2.516-1.911-1.794-2.899-4.036-2.936-6.657-.034-2.4.78-10.488.257-13.208a8.8 8.8 0 0 1-1.907-2.712c-1.822-.478-7.204-.327-8.697-.329-7.413-.008-14.947-.455-22.342-.022a9 9 0 0 1-.582.016l-59.289-.245a9 9 0 0 1-1.33-.101Zm20.508 30.022c21.5 1.166 38.37 20.865 40.959 43.93l-41.093.031zm-4.169 53.001c2.869-2.964 3.816-1.982 9.539-1.958l35.84-.145c.352 22.989-24.442 45.787-51.114 42.816-11.462-1.277-16.66-6.834-21.289-8.827-.903-1.661.739-.816-1.977-2.192 9.874-9.735 18.767-19.991 29.001-29.694Zm-3.1-53.969c-1.377 5.593.462 33.956-.282 43.235-.098 1.239-.15 1.259-.286 2.182-.223 1.499-.192 1.347-.213 1.172-.013-.105-.092.352-.109.533-3.138 1.648-13.184 12.817-15.87 15.533-3.728 3.768-11.223 12.767-14.898 14.78-4.448-4.319-8.758-14.451-9.873-22.361-4.033-28.62 15.476-53.194 41.53-55.074Z" clip-rule="evenodd"/></svg>
